X:55
T:Savonmaan Hilima (Hilima from Savonmaa province)
M:3/4
L:1/4
Q:1/4=160
S:arr. Eira Mattsson (Washington DC Finlandia Foundation) ~1976
R:waltz
N:The girl named Hilma from Savonmaa province
K:Em
B,/2B,/2 | "Em" E E>G | B G>A | "B7" G (F2 | F2) B,/2B,/2 |
F F>G | A G F | "Em" (B3 | B2) G/2A/2 | !
B B>c | d c B | "Am" d (c2 | c2) d/2d/2 |
"D7" d A B | c/2c/2 B A | "B7" (B3 | B) z B | !
"Em" e e>f | g f e | "Am" d c B | A2 A |
"D7" d d>e | d c A | "B7" B A G | F2 B | !
|: "Em" e e e/2f/2 | g/2f/2 e d/2d/2 |
"Am" c c/2B/2 c/2d/2 | e/2d/2 c B |
"D7" A A/2^G/2 A/2B/2 | !
d/2c/2 B A/2A/2 |
[1 "B7" G G/2F/2 G/2A/2 | B z B :||[2 "B7" G G F | "Em" E3 ||

